symbols/web/elderly/materialsymbolsoutlined/elderly_gradN25_40px.svg

<svg xmlns="http://www.w3.org/2000/svg" height="40" width="40"><path d="M22.458 8.875q-1.291 0-2.187-.917-.896-.916-.896-2.166 0-1.292.896-2.188.896-.896 2.187-.896 1.25 0 2.167.896.917.896.917 2.188 0 1.25-.917 2.166-.917.917-2.167.917Zm-9.083 29.417-2.083-1.584 4.25-5.75-.167-8.208q-.042-1.917.333-4.188.375-2.27 1.084-4.104l-4 2.334v5l-2.667.041V15.25l6.958-4q.75-.458 1.438-.667.687-.208 1.354-.208.958 0 1.687.458.73.459 1.146 1.292L24 14.667q.958 1.833 2.833 2.916 1.875 1.084 4 1.084 1 0 1.729.708.73.708.73 1.75V38.25h-1.334V21.125q0-.458-.333-.792-.333-.333-.792-.333-.458 0-.791.333-.334.334-.334.792V22.5h-1.291v-1.458q-1.834-.375-3.584-1.625t-2.75-2.792q-.5 1.375-.812 3.042-.313 1.666-.271 3.083l3.917 5.375V38.25h-2.625v-9l-3.5-3.875-.459 6.292Z"/></svg>

<svg xmlns="http://www.w3.org/2000/svg" height="40" width="40"><path d="M22.458 8.875Q21.167 8.875 20.271 7.958Q19.375 7.042 19.375 5.792Q19.375 4.5 20.271 3.604Q21.167 2.708 22.458 2.708Q23.708 2.708 24.625 3.604Q25.542 4.5 25.542 5.792Q25.542 7.042 24.625 7.958Q23.708 8.875 22.458 8.875ZM13.375 38.292 11.292 36.708 15.542 30.958 15.375 22.75Q15.333 20.833 15.687 18.625Q16.042 16.417 16.792 14.458L12.792 16.792V21.792L10.125 21.833V15.25L17.083 11.25Q17.958 10.75 18.625 10.562Q19.292 10.375 19.875 10.375Q20.833 10.375 21.562 10.812Q22.292 11.25 22.708 12.125L24 14.667Q24.958 16.5 26.833 17.583Q28.708 18.667 30.833 18.667Q31.833 18.667 32.562 19.375Q33.292 20.083 33.292 21.125V38.25H31.958V21.125Q31.958 20.667 31.625 20.333Q31.292 20 30.833 20Q30.375 20 30.042 20.333Q29.708 20.667 29.708 21.125V22.5H28.417V21.042Q28.417 21.042 28.417 21.042Q28.417 21.042 28.417 21.042Q26.583 20.667 24.833 19.417Q23.083 18.167 22.083 16.625Q21.542 18.125 21.25 19.708Q20.958 21.292 21 22.75L24.917 28.125V38.25H22.292V29.25L18.792 25.375L18.333 31.667Z"/></svg>
